X:1
T:WE'RE NAE AWA TAE BIDE AWA
M:C
L:1/8
Q:80
C:Traditional
S:March
K:HP
|: {g}A3/4B/4 | \
{GdG}c3e{g}dc{gBd}B{e}A | \
{gcd}c2{e}A2{GAG}A2{gcd}ce |
a3{g}a{g}ag{fg}fe | \
{gfg}f4{g}e2{g}f3/2g/2 | \
a2{g}a2{g}a3c |
{Gdc}d2f2{gef}e3{A}e | \
{gfg}f2{g}e2{ag}a2c2 | \
{gBd}B4{G}A3 :|
